svgs/thin/trash-can-clock.svg

<svg xmlns="http://www.w3.org/2000/svg" viewBox="0 0 576 512"><!--! Font Awesome Pro 6.4.0 by @fontawesome - https://fontawesome.com License - https://fontawesome.com/license (Commercial License) Copyright 2023 Fonticons, Inc. --><path d="M157.4 27.3L134.4 64H313.6l-23-36.7c-4.4-7-12.1-11.3-20.4-11.3H177.7c-8.3 0-16 4.3-20.4 11.3zM115.6 64l28.2-45.2C151.1 7.1 163.9 0 177.7 0h92.5c13.8 0 26.6 7.1 33.9 18.8L332.4 64H440c4.4 0 8 3.6 8 8s-3.6 8-8 8H8c-4.4 0-8-3.6-8-8s3.6-8 8-8H115.6zM40 112c4.4 0 8 3.6 8 8V440c0 30.9 25.1 56 56 56H311.2c6.1 5.8 12.7 11.1 19.6 16H104c-39.8 0-72-32.2-72-72V120c0-4.4 3.6-8 8-8zM312 239.3V160c0-4.4 3.6-8 8-8s8 3.6 8 8v66c-5.6 4.1-10.9 8.5-16 13.3zm104-46.5c-5.4 .5-10.7 1.2-16 2.2V120c0-4.4 3.6-8 8-8s8 3.6 8 8v72.7zM136 160V416c0 4.4-3.6 8-8 8s-8-3.6-8-8V160c0-4.4 3.6-8 8-8s8 3.6 8 8zm96 0V416c0 4.4-3.6 8-8 8s-8-3.6-8-8V160c0-4.4 3.6-8 8-8s8 3.6 8 8zM432 496a128 128 0 1 0 0-256 128 128 0 1 0 0 256zm0-272a144 144 0 1 1 0 288 144 144 0 1 1 0-288zm0 64c4.4 0 8 3.6 8 8v64h48c4.4 0 8 3.6 8 8s-3.6 8-8 8H432c-4.4 0-8-3.6-8-8V296c0-4.4 3.6-8 8-8z"/></svg>

<svg xmlns="http://www.w3.org/2000/svg" viewBox="0 0 576 512"><!--! Font Awesome Pro 6.3.0 by @fontawesome - https://fontawesome.com License - https://fontawesome.com/license (Commercial License) Copyright 2023 Fonticons, Inc. --><path d="M115.6 64L143.8 18.8C151.1 7.105 163.9 0 177.7 0H270.3C284.1 0 296.9 7.105 304.2 18.8L332.4 64H440C444.4 64 448 67.58 448 72C448 76.42 444.4 80 440 80H8C3.582 80 0 76.42 0 72C0 67.58 3.582 64 8 64H115.6zM134.4 64H313.6L290.6 27.28C286.2 20.26 278.5 16 270.3 16H177.7C169.5 16 161.8 20.26 157.4 27.28L134.4 64zM40 112C44.42 112 48 115.6 48 120V440C48 470.9 73.07 496 104 496H311.2C317.3 501.8 323.9 507.1 330.8 512H104C64.24 512 32 479.8 32 440V120C32 115.6 35.58 112 40 112V112zM312 160C312 155.6 315.6 152 320 152C324.4 152 328 155.6 328 160V225.1C322.4 230.1 317.1 234.5 312 239.3V160zM416 192.7C410.6 193.2 405.3 193.9 400 194.9V120C400 115.6 403.6 112 408 112C412.4 112 416 115.6 416 120V192.7zM136 416C136 420.4 132.4 424 128 424C123.6 424 120 420.4 120 416V160C120 155.6 123.6 152 128 152C132.4 152 136 155.6 136 160V416zM232 416C232 420.4 228.4 424 224 424C219.6 424 216 420.4 216 416V160C216 155.6 219.6 152 224 152C228.4 152 232 155.6 232 160V416zM431.1 288C436.4 288 439.1 291.6 439.1 296V360H488C492.4 360 496 363.6 496 368C496 372.4 492.4 376 488 376H431.1C427.6 376 423.1 372.4 423.1 368V296C423.1 291.6 427.6 288 431.1 288V288zM288 368C288 288.5 352.5 224 432 224C511.5 224 576 288.5 576 368C576 447.5 511.5 512 432 512C352.5 512 288 447.5 288 368zM432 496C502.7 496 560 438.7 560 368C560 297.3 502.7 240 432 240C361.3 240 304 297.3 304 368C304 438.7 361.3 496 432 496z"/></svg>
